X:1
T:[ID 7-72a]
T:[ID 7-72a]
T:Bezeichnung standardisiert: Menuett Menuetto Nro 4. et 5. In dieser Quelle auch als: Menuet
T:Urheber unbekannt Erstbeleg: 1776-1791 (Datum in der schriftlichen Quelle) Datum in der hier transkribierten schriftlichen Quelle: 1792
C:Urheber unbekannt
C:Erstbeleg: 1776-1791 (Datum in der schriftlichen Quelle)
C:Datum in der hier transkribierten schriftlichen Quelle: 1792
%%score 1 2
L:1/8
M:3/4
K:G
V:1 treble nm="Primo"
V:2 treble nm="Secondo"
V:1
 A3 gfe | d2 c2 B2 | G3 gfe | d2 c2 B2 | ecef g2 | dBdf g2 | c2 edcB | B4 A2 :: D4 d2 | %9
 (dc)(cB) B2 | D4 c2 | (cB)(BA) A2 | G3 gfe | d2 c2 B2 | (3edc B2 (3ABA | A4 G2 :| %16
V:2
 !fermata!B3 edc | B2 A2 G2 | B3 edc | B2 A2 G2 |"^1)" x6 |"^1)" x6 | A2 cBAG | G4 F2 :: F4 B2 | %9
 (BA)(AG) G2 | F4 A2 | (AG)(GF) F2 | B3 edc | B2 A2 G2 | (3cBA G2 D2 | C4 B,2 :| %16

